build/svg/cmd/32/errorcellstyles.svg

<?xml version="1.0" encoding="UTF-8" standalone="no"?>
<svg
   xmlns:dc="http://purl.org/dc/elements/1.1/"
   xmlns:cc="http://creativecommons.org/ns#"
   xmlns:rdf="http://www.w3.org/1999/02/22-rdf-syntax-ns#"
   xmlns:svg="http://www.w3.org/2000/svg"
   xmlns="http://www.w3.org/2000/svg"
   xmlns:sodipodi="http://sodipodi.sourceforge.net/DTD/sodipodi-0.dtd"
   xmlns:inkscape="http://www.inkscape.org/namespaces/inkscape"
   height="32"
   viewBox="0 0 32 32"
   width="32"
   version="1.1"
   id="svg4"
   sodipodi:docname="errorcellstyles.svg"
   inkscape:version="0.92.5 (2060ec1f9f, 2020-04-08)"
   inkscape:export-filename="/home/jupiter007/Libreoffice yaru theme fullcolor/build/cmd/32/errorcellstyles.png"
   inkscape:export-xdpi="96"
   inkscape:export-ydpi="96">
  <metadata
     id="metadata10">
    <rdf:RDF>
      <cc:Work
         rdf:about="">
        <dc:format>image/svg+xml</dc:format>
        <dc:type
           rdf:resource="http://purl.org/dc/dcmitype/StillImage" />
      </cc:Work>
    </rdf:RDF>
  </metadata>
  <defs
     id="defs8" />
  <sodipodi:namedview
     pagecolor="#ffffff"
     bordercolor="#666666"
     borderopacity="1"
     objecttolerance="10"
     gridtolerance="10"
     guidetolerance="10"
     inkscape:pageopacity="0"
     inkscape:pageshadow="2"
     inkscape:window-width="1920"
     inkscape:window-height="1011"
     id="namedview6"
     showgrid="true"
     inkscape:zoom="14.75"
     inkscape:cx="5.5797344"
     inkscape:cy="18.474689"
     inkscape:window-x="0"
     inkscape:window-y="32"
     inkscape:window-maximized="1"
     inkscape:current-layer="svg4">
    <inkscape:grid
       type="xygrid"
       id="grid817" />
  </sodipodi:namedview>
  <path
     d="m16 5a11 11 0 0 0 -7.4082031 2.8847656l-.015625-.015625-.4667969.4667969-.2402344.2402344.015625.015625a11 11 0 0 0 -2.8847656 7.4082031 11 11 0 0 0 11 11 11 11 0 0 0 7.408203-2.884766l.015625.015625.466797-.466797.240234-.240234-.015625-.015625a11 11 0 0 0 2.884766-7.408203 11 11 0 0 0 -11-11zm0 1a10 10 0 0 1 10 10 10 10 0 0 1 -2.591797 6.701172l-14.1093749-14.1093751a10 10 0 0 1 6.7011719-2.5917969zm-7.4082031 3.2988281 14.1093751 14.1093749a10 10 0 0 1 -6.701172 2.591797 10 10 0 0 1 -10-10 10 10 0 0 1 2.5917969-6.7011719z"
     fill="#232629"
     id="path2" />
  <circle
     style="opacity:1;fill:#c7162b;fill-opacity:1;stroke:none;stroke-width:2;stroke-linejoin:round;stroke-miterlimit:4;stroke-dasharray:none;stroke-opacity:1"
     id="path819"
     cx="16"
     cy="16"
     r="12" />
  <path
     d="m 15,23 v -2 h 2 v 2 z m 0,-4 V 9 h 2 v 10 z"
     id="path2-3"
     inkscape:connector-curvature="0"
     style="fill:#ffffff;fill-opacity:1"
     sodipodi:nodetypes="cccccccccc" />
</svg>

<svg xmlns="http://www.w3.org/2000/svg" height="32" width="32"><path d="M16 5a11 11 0 00-7.408 2.885l-.016-.016-.467.467-.24.24.016.016A11 11 0 005 16a11 11 0 0011 11 11 11 0 007.408-2.885l.016.016.467-.467.24-.24-.016-.016A11 11 0 0027 16 11 11 0 0016 5zm0 1a10 10 0 0110 10 10 10 0 01-2.592 6.701L9.298 8.591A10 10 0 0116 6zM8.592 9.299l14.11 14.11A10 10 0 0116 26 10 10 0 016 16a10 10 0 012.592-6.701z" fill="#232629"/><circle cx="16" cy="16" r="12" fill="#c7162b"/><path d="M15 23v-2h2v2zm0-4V9h2v10z" fill="#fff"/></svg>
